svg/u26b1.svg

<svg viewBox="0 0 128 128" xmlns="http://www.w3.org/2000/svg">
  <g>
    <path d="M94.41,28.78c-3.04-3.49-7.2-4.23-8.46-5.53c-1.83-1.9-1.02-4.23-1.02-4.23H43.07 c0,0,0.81,2.33-1.02,4.23c-1.26,1.3-5.42,2.05-8.46,5.53c-2.6,2.98-5.73,3.42-4.22,31.98c1.99,37.8,15.53,58.41,15.53,58.41 S51.73,124,64,124s19.1-4.82,19.1-4.82s13.54-20.61,15.53-58.41C100.13,32.21,97.01,31.76,94.41,28.78z" fill="#F3AB47"/>
    <path d="M64.3,27.12c11.14,0,18.6-1.92,22.47-3.27c-0.34-0.19-0.62-0.39-0.82-0.6 c-1.83-1.9-1.02-4.23-1.02-4.23s1.61-0.68,2.57-2.21l-1.53-3.58H64H45.56l-2.29,1.41l-0.59,4.17c0.24,0.13,0.4,0.2,0.4,0.2 s0.81,2.33-1.02,4.23C42.05,23.25,47.11,27.12,64.3,27.12z" fill="#B24938"/>
    <g>
      <path d="M64.73,49.31c-17.63,0-30.42-4.42-35.65-6.59l0.38-3.24c4.3,1.85,17.3,6.71,35.26,6.71 c17.97,0,30.03-4.84,33.97-6.68l0.32,3.29C94.02,45.01,82.09,49.31,64.73,49.31z" fill="#D85A41"/>
      <path d="M64.49,117.78c-11.99,0-20.33-4.43-23.78-6.67l-1.77-4.72c0.09,0.07,10.96,8.39,25.55,8.39 c14.61,0,24.7-8.32,24.78-8.39l-2.08,4.95C83.76,113.66,76.06,117.78,64.49,117.78z" fill="#D85A41"/>
      <path d="M64.73,58.85c-18.03,0-30.5-4.36-35.65-6.55l0-3.42c3.75,1.71,16.59,6.86,35.65,6.86 c18.95,0,30.82-5.09,34.29-6.81l0,3.47C94.1,54.62,82.47,58.85,64.73,58.85z" fill="#D85A41"/>
    </g>
    <path d="M35.15,57.76c1.94,0.6,5.72,1.66,9.85,2.21c0.57,0.08,0.95,0.62,0.85,1.18 c-0.46,2.62-1.38,10.29,0.22,24.76c1.27,11.56,2.74,20.05,3.37,23.46c0.13,0.68-0.58,1.19-1.19,0.88l-3.19-1.64 c-0.57-0.29-1.01-0.76-1.27-1.34c-2.73-6.03-9.13-26.01-9.95-48.51C33.81,58.07,34.48,57.56,35.15,57.76z" opacity="0.55" fill="#FFF9C4"/>
    <path d="M34.75,51.08V47.2c0-0.55,0.55-0.93,1.06-0.73c0.88,0.35,2.28,0.83,4.04,1.22 c2.17,0.48,4.38,0.86,5.53,1.05c0.47,0.08,0.82,0.48,0.82,0.96v4.33c0,0-3.84-0.84-7.12-1.6S34.75,51.08,34.75,51.08z" opacity="0.55" fill="#FFF9C4"/>
    <path d="M33.84,32.74c0,2.51,1.87,3.43,8.76,4.85c4.65,0.96,6.08,0.56,8.73-1.48 c2.48-1.92,5.22-5.7,5.22-5.7c-3.26-0.38-6.26-1.15-9.47-1.83c-2.89-0.61-5.94-2.27-8.72-0.75C36.79,28.68,33.84,30.69,33.84,32.74 z" opacity="0.55" fill="#FFF9C4"/>
    <path d="M39.8,10.98C39.8,9.85,50.64,4,64,4s24.2,5.64,24.2,6.98c0,3.43-10.83,6.21-24.2,6.21 S39.8,14.41,39.8,10.98z" fill="#FFBC6C"/>
    <path d="M88.2,10.98c0,3.43-10.83,6.21-24.2,6.21c-13.36,0-24.2-2.78-24.2-6.21v4.08 c0,1.17,0.23,2.59,1.65,3.32c1.76,0.9,3.58,1.29,4.57,1.55c4.85,1.24,11.23,1.93,17.98,1.93c6.75,0,13.13-0.68,17.98-1.93 c0.99-0.25,2.78-0.71,4.57-1.55c1.42-0.66,1.65-2.15,1.65-3.32V10.98z" fill="#E5912C"/>
    <path d="M60.44,5.28c1.16-0.17,1.81,1.06,0.87,1.66c-1.72,1.09-3.59,2.43-4.83,3.69 c-2.74,2.8-3.83,4.54-3.83,4.54c-7.97-1.38-10.94-3.4-10.94-3.4s4.93-2.83,9.63-4.52C53.77,6.38,57.45,5.72,60.44,5.28z" opacity="0.55" fill="#FFF9C4"/>
  </g>
</svg>

<svg viewBox="0 0 128 128" xmlns="http://www.w3.org/2000/svg">
  <defs/>
  <path d="M94.41,28.78 C91.37,25.29 87.21,24.55 85.95,23.25 C84.12,21.35 84.93,19.02 84.93,19.02 L43.07,19.02 C43.07,19.02 43.88,21.35 42.05,23.25 C40.79,24.55 36.63,25.3 33.59,28.78 C30.99,31.76 27.86,32.2 29.37,60.76 C31.36,98.56 44.9,119.17 44.9,119.17 C44.9,119.17 51.73,124 64,124 C76.27,124 83.1,119.18 83.1,119.18 C83.1,119.18 96.64,98.57 98.63,60.77 C100.13,32.21 97.01,31.76 94.41,28.78 Z" fill="#F3AB47"/>
  <path d="M64.3,27.12 C75.44,27.12 82.9,25.2 86.77,23.85 C86.43,23.66 86.15,23.46 85.95,23.25 C84.12,21.35 84.93,19.02 84.93,19.02 C84.93,19.02 86.54,18.34 87.5,16.81 L85.97,13.23 L64,13.23 L45.56,13.23 L43.27,14.64 L42.68,18.81 C42.92,18.94 43.08,19.01 43.08,19.01 C43.08,19.01 43.89,21.34 42.06,23.24 C42.05,23.25 47.11,27.12 64.3,27.12 Z" fill="#B24938"/>
  <path d="M64.73,49.31 C47.1,49.31 34.31,44.89 29.08,42.72 L29.46,39.48 C33.76,41.33 46.76,46.19 64.72,46.19 C82.69,46.19 94.75,41.35 98.69,39.51 L99.01,42.8 C94.02,45.01 82.09,49.31 64.73,49.31 Z" fill="#D85A41"/>
  <path d="M64.49,117.78 C52.5,117.78 44.16,113.35 40.71,111.11 L38.94,106.39 C39.03,106.46 49.9,114.78 64.49,114.78 C79.1,114.78 89.19,106.46 89.27,106.39 L87.19,111.34 C83.76,113.66 76.06,117.78 64.49,117.78 Z" fill="#D85A41"/>
  <path d="M64.73,58.85 C46.7,58.85 34.23,54.49 29.08,52.3 L29.08,48.88 C32.83,50.59 45.67,55.74 64.73,55.74 C83.68,55.74 95.55,50.65 99.02,48.93 L99.02,52.4 C94.1,54.62 82.47,58.85 64.73,58.85 Z" fill="#D85A41"/>
  <path d="M35.15,57.76 C37.09,58.36 40.87,59.42 45,59.97 C45.57,60.05 45.95,60.59 45.85,61.15 C45.39,63.77 44.47,71.44 46.07,85.91 C47.34,97.47 48.81,105.96 49.44,109.37 C49.57,110.05 48.86,110.56 48.25,110.25 L45.06,108.61 C44.49,108.32 44.05,107.85 43.79,107.27 C41.06,101.24 34.66,81.26 33.84,58.76 C33.81,58.07 34.48,57.56 35.15,57.76 Z" fill="#FFF9C4" opacity="0.55"/>
  <path d="M34.75,51.08 L34.75,47.2 C34.75,46.65 35.3,46.27 35.81,46.47 C36.69,46.82 38.09,47.3 39.85,47.69 C42.02,48.17 44.23,48.55 45.38,48.74 C45.85,48.82 46.2,49.22 46.2,49.7 L46.2,54.03 C46.2,54.03 42.36,53.19 39.08,52.43 C35.8,51.67 34.75,51.08 34.75,51.08 Z" fill="#FFF9C4" opacity="0.55"/>
  <path d="M33.84,32.74 C33.84,35.25 35.71,36.17 42.6,37.59 C47.25,38.55 48.68,38.15 51.33,36.11 C53.81,34.19 56.55,30.41 56.55,30.41 C53.29,30.03 50.29,29.26 47.08,28.58 C44.19,27.97 41.14,26.31 38.36,27.83 C36.79,28.68 33.84,30.69 33.84,32.74 Z" fill="#FFF9C4" opacity="0.55"/>
  <path d="M39.8,10.98 C39.8,9.85 50.64,4 64,4 C77.36,4 88.2,9.64 88.2,10.98 C88.2,14.41 77.37,17.19 64,17.19 C50.63,17.19 39.8,14.41 39.8,10.98 Z" fill="#FFBC6C"/>
  <path d="M88.2,10.98 C88.2,14.41 77.37,17.19 64,17.19 C50.64,17.19 39.8,14.41 39.8,10.98 L39.8,15.06 C39.8,16.23 40.03,17.65 41.45,18.38 C43.21,19.28 45.03,19.67 46.02,19.93 C50.87,21.17 57.25,21.86 64,21.86 C70.75,21.86 77.13,21.18 81.98,19.93 C82.97,19.68 84.76,19.22 86.55,18.38 C87.97,17.72 88.2,16.23 88.2,15.06 L88.2,10.98 Z" fill="#E5912C"/>
  <path d="M60.44,5.28 C61.6,5.11 62.25,6.34 61.31,6.94 C59.59,8.03 57.72,9.37 56.48,10.63 C53.74,13.43 52.65,15.17 52.65,15.17 C44.68,13.79 41.71,11.77 41.71,11.77 C41.71,11.77 46.64,8.94 51.34,7.25 C53.77,6.38 57.45,5.72 60.44,5.28 Z" fill="#FFF9C4" opacity="0.55"/>
</svg>
